X:870
T:Reel 870
M:4/4
K:Gmaj
L:1/8
 (3def |g2Bc dgab|c'bag c'gef|g2Be d2BG|ABAB cedc|BABc dBce|dggf gabc'|d'bc'a bgaf|g2fd ecdc|BcdB GABG|B>A (3AAA e2dc|BcdB GABG|ABcd e2de|fgaf gbag|fgef gfge|dBGB dBAB|Gggf g2|
